kiosk-igrinskij/images/df9d7e0e0ee0f5de20050d31b97f4179.svg

<svg fill="none" height="16" viewBox="0 0 12 16" width="12" xmlns="http://www.w3.org/2000/svg"><path clip-rule="evenodd" d="m1.3475 6.47651v-1.67063c0-2.64811 2.10436-4.80262479 4.69082-4.80588 2.58652 0 4.69078 2.15446 4.69078 4.80263v1.67062h.0319c.6834 0 1.239.56885 1.239 1.26845v8.2583h-12v-8.25499c0-.69965.555632-1.2685 1.23896-1.2685zm5.26561 5.32569c0-.1144.02554-.1831.12134-.255.31612-.2354.47259-.5623.47259-.9645-.00641-.5786-.39917-1.04288-.96432-1.16055-.50776-.1046-1.04742.18961-1.26774.68985-.22671.5133-.07664 1.0984.37679 1.4418.08945.0686.11177.1372.11177.2419-.00317.5133-.00317 1.0265-.00317 1.5398v.0033c0 .425.43746.7454.87492.5166.18519-.0949.29056-.3041.28099-.5166 0-.5133 0-1.0233-.00317-1.5366zm-.57479-9.69679c-1.45287 0-2.63756 1.20969-2.63756 2.70047v1.67063h5.27513v-1.67063c0-1.48752-1.18146-2.70047-2.63757-2.70047z" fill="#f1e9dd" fill-rule="evenodd"/></svg>

<svg width="12" height="16" viewBox="0 0 12 16" fill="none" xmlns="http://www.w3.org/2000/svg">
<path fill-rule="evenodd" clip-rule="evenodd" d="M1.3475 6.47651V4.80588C1.3475 2.15777 3.45186 0.00325521 6.03832 0C8.62484 0 10.7291 2.15446 10.7291 4.80263V6.47325H10.761C11.4444 6.47325 12 7.0421 12 7.7417V16H0V7.74501C0 7.04536 0.555632 6.47651 1.23896 6.47651H1.3475ZM6.61311 11.8022C6.61311 11.6878 6.63865 11.6191 6.73445 11.5472C7.05057 11.3118 7.20704 10.9849 7.20704 10.5827C7.20063 10.0041 6.80787 9.53982 6.24272 9.42215C5.73496 9.31755 5.1953 9.61176 4.97498 10.112C4.74827 10.6253 4.89834 11.2104 5.35177 11.5538C5.44122 11.6224 5.46354 11.691 5.46354 11.7957C5.46037 12.309 5.46037 12.8222 5.46037 13.3355V13.3388C5.46037 13.7638 5.89783 14.0842 6.33529 13.8554C6.52048 13.7605 6.62585 13.5513 6.61628 13.3388C6.61628 12.8255 6.61628 12.3155 6.61311 11.8022ZM6.03832 2.10541C4.58545 2.10541 3.40076 3.3151 3.40076 4.80588V6.47651H8.67589V4.80588C8.67589 3.31836 7.49443 2.10541 6.03832 2.10541Z" fill="#F1E9DD"/>
</svg>
